images/sun.svg

<svg width="50" height="50" viewBox="0 0 50 50" fill="none" xmlns="http://www.w3.org/2000/svg">
<path fill-rule="evenodd" clip-rule="evenodd" d="M25 30.125C28.2305 30.125 30.625 27.7107 30.625 25C30.625 22.2893 28.2305 19.875 25 19.875C21.7695 19.875 19.375 22.2893 19.375 25C19.375 27.7107 21.7695 30.125 25 30.125ZM25 32C29.1421 32 32.5 28.866 32.5 25C32.5 21.134 29.1421 18 25 18C20.8579 18 17.5 21.134 17.5 25C17.5 28.866 20.8579 32 25 32Z" fill="#72B33B"/>
<path fill-rule="evenodd" clip-rule="evenodd" d="M24 16V13L25.875 13V16H24Z" fill="#72B33B"/>
<path fill-rule="evenodd" clip-rule="evenodd" d="M24 37V34H25.875V37H24Z" fill="#72B33B"/>
<path fill-rule="evenodd" clip-rule="evenodd" d="M34 24H37V25.875H34V24Z" fill="#72B33B"/>
<path fill-rule="evenodd" clip-rule="evenodd" d="M13 24H16L16 25.875H13L13 24Z" fill="#72B33B"/>
<path fill-rule="evenodd" clip-rule="evenodd" d="M30.6568 17.9289L32.7781 15.8076L34.104 17.1334L31.9827 19.2548L30.6568 17.9289Z" fill="#72B33B"/>
<path fill-rule="evenodd" clip-rule="evenodd" d="M15.8076 32.7782L17.9289 30.6569L19.2548 31.9827L17.1334 34.104L15.8076 32.7782Z" fill="#72B33B"/>
<path fill-rule="evenodd" clip-rule="evenodd" d="M32.071 30.6569L34.1924 32.7782L32.8665 34.104L30.7452 31.9827L32.071 30.6569Z" fill="#72B33B"/>
<path fill-rule="evenodd" clip-rule="evenodd" d="M17.2218 15.8076L19.3432 17.9289L18.0173 19.2548L15.896 17.1334L17.2218 15.8076Z" fill="#72B33B"/>
<path opacity="0.1" fill-rule="evenodd" clip-rule="evenodd" d="M25 50C38.8071 50 50 38.8071 50 25C50 11.1929 38.8071 0 25 0C11.1929 0 0 11.1929 0 25C0 38.8071 11.1929 50 25 50Z" fill="#72B33B"/>
</svg>

<svg width="50" height="50" fill="none" xmlns="http://www.w3.org/2000/svg"><path fill-rule="evenodd" clip-rule="evenodd" d="M25 30.125c3.23 0 5.625-2.414 5.625-5.125 0-2.71-2.395-5.125-5.625-5.125S19.375 22.289 19.375 25c0 2.71 2.395 5.125 5.625 5.125ZM25 32c4.142 0 7.5-3.134 7.5-7s-3.358-7-7.5-7c-4.142 0-7.5 3.134-7.5 7s3.358 7 7.5 7ZM24 16v-3h1.875v3H24ZM24 37v-3h1.875v3H24ZM34 24h3v1.875h-3V24ZM13 24h3v1.875h-3V24ZM30.657 17.929l2.121-2.121 1.326 1.325-2.121 2.122-1.326-1.326ZM15.808 32.778l2.12-2.121 1.327 1.326-2.122 2.121-1.325-1.326ZM32.071 30.657l2.121 2.121-1.325 1.326-2.122-2.121 1.326-1.326ZM17.222 15.808l2.121 2.12-1.326 1.327-2.121-2.122 1.326-1.325Z" fill="#72B33B"/><path opacity=".1" fill-rule="evenodd" clip-rule="evenodd" d="M25 50c13.807 0 25-11.193 25-25S38.807 0 25 0 0 11.193 0 25s11.193 25 25 25Z" fill="#72B33B"/></svg>
